T: Lea Rig, The
M: 4/4
L: 1/8
K: Amaj
|: c |(AF)EF {F/}A2 (AB) | (A/B/c) T(BA) BFFB | (AF)EF {F/}A2 (Aa) | Tf2 ec eAA :|
a |Tf2 (ec) efac | B/B/B T(BA) BFFB | AFEF TA2 (Aa) | Tf2 (ec) eAAa |
Tf2 (ec) efac | B/B/B T(BA) BFFB | AFEF ABce | faea {d/}cAA |]
